X:1
T: Wise Nora
C:
R:Jig
Q:180
K:G
M:6/8
L:1/16
D2|:G2A2G2 G4A2|B4F2 d4B2|G2A2G2 G4B2|A4B2 d2c2A2|G2A2G2 G4A2|B2A2G2 A2B2c2|d4e2 f2e2f2|A4B2 c2B2A2:|
|:d2e2d2 d4c2|B4G2 d4B2|d2e2d2 d4B2|A4B2 c2B2A2|d2e2d2 d4c2|B2A2G2 A2B2c2|d4e2 f2e2f2|A4B2 c2B2A2:|
|:B2G2G2 d2G2G2|B2A2G2 d2B2G2|A2F2F2 c2F2F2|A2F2A2 c2B2A2|B2G2G2 d2G2G2|B2A2G2 A2B2c2|d4e2 f2e2f2|A4B2 c2B2A2:|
|:G2B2d2 G2B2d2|B2G2d2 d2c2B2|G2B2d2 G2B2d2|A4B2 c2B2A2|G2B2d2 G2B2d2|G2B2d2 d2c2B2|G2B2d2 f2e2f2|A4B2 c2B2A2:|
|:G2B2d2 g2f2g2|a2g2f2 g6|G2B2d2 g4B2|A4B2 c2B2A2|G2B2d2 g2f2g2|a2g2f2 g4ga|b2a2g2 a2g2f2|A4B2 c2B2A2:|
|:d2B2G2 G2D2G2|B2G2B2 d4B2|d2B2G2 G2D2G2|A4B2 c2B2A2|d2B2G2 G2D2G2|B2G2B2 d2c2B2|G2B2d2 f2e2f2|A4B2 c2B2A2:|
